!!!COM: Bartok, Bela
!!!OTL: Notturno
!!!ONM: 97
!!!OPR: Mikrokosmos, Vol. IV
!! Boosey & Hawkes Ltd. (London) 1955, copyright 1940 pp.6-7
**kern	**kern
*M6/8	*M6/8
=1	=1
8E	2.r
8G	.
8c	.
8d-	.
8c	.
8G	.
=2	=2
8E	2.r
8G	.
8c	.
8dn	.
8c	.
8G	.
=3	=3
8E	{4.e
8G	.
8c	.
8d#	8f#}
8c	8r
8G	8r
=4	=4
8E	{4.e
8G	.
8c	.
8dn	8f#}
8c	8r
8G	8r
=5	=5
8E	{4e
8G	.
8c	8f#
8d-	4g
8c	.
8G	8f#
=6	=6
8E	4.e
8G	.
8c	.
8d#	8a}
8c	8r
8G	8r
=7	=7
8E	{16g
.	16f#
8G	[4e
8c	.
8dn	4.e_
8c	.
8G	.
=8	=8
8E	4.e]
8G	.
8c	.
8e-	8f#'}
8c	8r
8A-	8r
=9	=9
8G	2.r
8B-	.
8c#	.
8e-	.
8c#	.
8B-	.
=10	=10
8G	{4.ee
8B-	.
8c#	.
8e-	8ff#}
8c#	8r
8B-	8r
=11	=11
8G	{4.ee
8B-	.
8c#	.
8d	8ff#}
8c#	8r
8B-	8r
=12	=12
8G	{4gg
8B-	.
8c#	8ff#
8e-	4gg
8c#	.
8B-	8aa
=13	=13
8G	4.bb-
8B-	.
8c#	.
8fn	4.aa}
8c#	.
8B-	.
=14	=14
8G	{16gg
.	16ff#
8B-	[4ee
8c#	.
8d	4.ee_
8c#	.
8B-	.
=15	=15
8G	4.ee]
8B-	.
8c#	.
8e-	8aa'}
8c#	8r
8B-	8r
=16	=16
8G	2.r
8Bn	.
8e	.
8fn	.
8e	.
8B	.
=17	=17
8G	{4.bb
8B	.
8e	.
8f#	8aa#}
8e	8r
8B	8r
=18	=18
8G	{4.bb
8B	.
8d#	.
8f#	8ff#}
8d#	8r
8B	8r
=19	=19
8G	{4.gg
8B-	.
8d	.
8e-	8ff#}
8d	8r
8B-	8r
=20	=20
8G	{4.gg
8A	.
8c#	.
8d	8dd}
8c#	8r
8A	8r
=21	=21
8G	{16ee
.	16dd
8B	[4cc#
8d	.
8e	4cc#}]
8d	.
8B	{16b
.	16cc#
=22	=22
8G	4.dd}
8B-	.
8d	.
8fn	{16ee
.	16dd
8d	[4cc#
8B-	.
=23	=23
8G	4cc#}]
8Bn	.
8d	{16b
.	16cc#
8f#	[4.dd
8d	.
8B	.
=24	=24
8G	4.dd]
8B-	.
8c#	.
8fn	8a}
8c#	8r
8B-	8r
=25	=25
8F#	[{2.b
8A	.
8c	.
8e	.
8c	.
8A	.
=26	=26
8Fn	4.b]
8A	.
8c	.
8d#	8g}
8c	8r
8A	8r
=27	=27
2.r	{8E
.	8G
.	8c
.	8d#
.	8cn
.	8G
=28	=28
{4.EE	8E
.	8G
.	8c
8FF#}	8d#
8r	8A#
8r	8F#
=29	=29
{4.GG	8E
.	8G
.	8c
8AA}	8d#
8r	8c#
8r	8F#
=30	=30
{4AA#	8E
.	8G
8BB#	8cn
4C#	8d#
.	8A#
8BB#	8F#
=31	=31
4.AA#}	8E
.	8G
.	8cn
{4BB#	8d#
.	8A#
8AAn}	8F#
=32	=32
{16GG	8E
16FF#	.
[4EE	8G
.	8c
4.EE_	8d#
.	8A#
.	8F#
=33	=33
4.EE]	8E
.	8G
.	8c
8AA'}	8d#
8r	8c#
8r	8F#
=34	=34
{16GG	8E
16FF#	.
[4EE	8G
.	8c
4.EE]	8d#
.	8B
.	8F#
=35	=35
4.EE}	8G
.	8A#
.	8c#
{8.GG	8d#
.	8f#
8.FF#	.
.	8d#
=36	=36
[2.EE	8c#
.	8A#
.	8c#
.	8.A#
.	[8.Gn
=37	=37
2.EE}]	2.G]
==	==
*-	*-
